; G-Code generated by Simplify3D(R) Version 4.1.2
; Sep 12, 2020 at 9:24:33 AM
; Settings Summary
;   processName,Process1
;   applyToModels,fea_bowl_part
;   profileName,LulzBot Taz 6 (modified)
;   profileVersion,2016-05-21 16:22:23
;   baseProfile,LulzBot TAZ 5 (modified)
;   printMaterial,PLA
;   printQuality,Medium
;   printExtruders,
;   extruderName,Primary Extruder
;   extruderToolheadNumber,0
;   extruderDiameter,0.8
;   extruderAutoWidth,0
;   extruderWidth,0.8
;   extrusionMultiplier,1
;   extruderUseRetract,0
;   extruderRetractionDistance,1.6
;   extruderExtraRestartDistance,0
;   extruderRetractionZLift,0.3
;   extruderRetractionSpeed,5400
;   extruderUseCoasting,0
;   extruderCoastingDistance,0.05
;   extruderUseWipe,0
;   extruderWipeDistance,5
;   primaryExtruder,0
;   layerHeight,0.4
;   topSolidLayers,0
;   bottomSolidLayers,0
;   perimeterOutlines,0
;   printPerimetersInsideOut,0
;   startPointOption,3
;   startPointOriginX,0
;   startPointOriginY,0
;   sequentialIslands,0
;   spiralVaseMode,0
;   firstLayerHeightPercentage,100
;   firstLayerWidthPercentage,100
;   firstLayerUnderspeed,0.25
;   useRaft,0
;   raftExtruder,0
;   raftTopLayers,3
;   raftBaseLayers,0
;   raftOffset,3
;   raftSeparationDistance,0.14
;   raftTopInfill,100
;   aboveRaftSpeedMultiplier,0.3
;   useSkirt,0
;   skirtExtruder,0
;   skirtLayers,1
;   skirtOutlines,2
;   skirtOffset,10
;   usePrimePillar,0
;   primePillarExtruder,999
;   primePillarWidth,12
;   primePillarLocation,7
;   primePillarSpeedMultiplier,1
;   useOozeShield,0
;   oozeShieldExtruder,999
;   oozeShieldOffset,2
;   oozeShieldOutlines,1
;   oozeShieldSidewallShape,1
;   oozeShieldSidewallAngle,30
;   oozeShieldSpeedMultiplier,1
;   infillExtruder,0
;   internalInfillPattern,Rectilinear
;   externalInfillPattern,Rectilinear
;   infillPercentage,100
;   outlineOverlapPercentage,0
;   infillExtrusionWidthPercentage,100
;   minInfillLength,0
;   infillLayerInterval,1
;   internalInfillAngles,0
;   overlapInternalInfillAngles,0
;   externalInfillAngles,45,-45
;   generateSupport,0
;   supportExtruder,0
;   supportInfillPercentage,30
;   supportExtraInflation,0
;   supportBaseLayers,0
;   denseSupportExtruder,0
;   denseSupportLayers,0
;   denseSupportInfillPercentage,70
;   supportLayerInterval,1
;   supportHorizontalPartOffset,0.3
;   supportUpperSeparationLayers,1
;   supportLowerSeparationLayers,1
;   supportType,0
;   supportGridSpacing,4
;   maxOverhangAngle,45
;   supportAngles,0
;   temperatureName,Primary Extruder,Heated Bed
;   temperatureNumber,0,0
;   temperatureSetpointCount,1,1
;   temperatureSetpointLayers,1,1
;   temperatureSetpointTemperatures,240,110
;   temperatureStabilizeAtStartup,1,1
;   temperatureHeatedBed,0,1
;   fanLayers,1
;   fanSpeeds,0
;   blipFanToFullPower,1
;   adjustSpeedForCooling,1
;   minSpeedLayerTime,15
;   minCoolingSpeedSlowdown,20
;   increaseFanForCooling,0
;   minFanLayerTime,45
;   maxCoolingFanSpeed,100
;   increaseFanForBridging,0
;   bridgingFanSpeed,100
;   use5D,1
;   relativeEdistances,0
;   allowEaxisZeroing,1
;   independentExtruderAxes,0
;   includeM10123,0
;   stickySupport,1
;   applyToolheadOffsets,0
;   gcodeXoffset,0
;   gcodeYoffset,0
;   gcodeZoffset,0.4
;   overrideMachineDefinition,1
;   machineTypeOverride,0
;   strokeXoverride,280
;   strokeYoverride,280
;   strokeZoverride,250
;   originOffsetXoverride,0
;   originOffsetYoverride,0
;   originOffsetZoverride,0
;   homeXdirOverride,-1
;   homeYdirOverride,-1
;   homeZdirOverride,-1
;   flipXoverride,1
;   flipYoverride,-1
;   flipZoverride,1
;   toolheadOffsets,0,0|0,0|0,0|0,0|0,0|0,0
;   overrideFirmwareConfiguration,1
;   firmwareTypeOverride,RepRap (Marlin/Repetier/Sprinter)
;   GPXconfigOverride,r2
;   baudRateOverride,250000
;   overridePrinterModels,1
;   printerModelsOverride,LulzBot_TAZ3.stl
;   startingGcode,G26                          		; clear potential 'probe fail' condition,G21                         		; set units to Millimetres,M107                        		; disable fans,G90                          		; absolute positioning,M82                          		; set extruder to absolute mode,G92 E0                       		; set extruder position to 0,M140 S[bed0_temperature]		; get bed heating up,G28 XY                       		; home X and Y,G1 X-19 Y258 F1000           		; move to safe homing position,M109 S160                    		; soften filament for z homing,G28 Z                        		; home Z,M104 S150                    		; wipe temp,G1 E-30 F100                 		; suck up XXmm of filament,G1 X-15 Y100 F3000           		; move above wiper pad,G1 Z1                        		; push nozzle into wiper,G1 X-17 Y95 F1000            		; slow wipe,G1 X-17 Y90 F1000            		; slow wipe,G1 X-17 Y85 F1000            		; slow wipe,G1 X-15 Y90 F1000            		; slow wipe,G1 X-17 Y80 F1000            		; slow wipe,G1 X-15 Y95 F1000            		; slow wipe,G1 X-17 Y75 F2000            		; fast wipe,G1 X-15 Y65 F2000            		; fast wipe,G1 X-17 Y70 F2000            		; fast wipe,G1 X-15 Y60 F2000            		; fast wipe,G1 X-17 Y55 F2000            		; fast wipe,G1 X-15 Y50 F2000            		; fast wipe,G1 X-17 Y40 F2000            		; fast wipe,G1 X-15 Y45 F2000            		; fast wipe,G1 X-17 Y35 F2000            		; fast wipe,G1 X-15 Y40 F2000            		; fast wipe,G1 X-17 Y70 F2000            		; fast wipe,G1 X-15 Y30 Z2 F2000       		; fast wipe,G1 X-17 Y35 F2000            		; fast wipe,G1 X-15 Y25 F2000            		; fast wipe,G1 X-17 Y30 F2000            		; fast wipe,G1 X-15 Y25 Z1.5 F1000       		; slow wipe,G1 X-17 Y23 F1000            		; slow wipe,G1 Z10                       		; raise extruder,M109 S150                   	 	; heat to probe temp,G1 X-9 Y-9                   		; move above probe,M204 S100                    		; set accel for probing,G29                          		; probe sequence (for auto-leveling),M204 S500                    		; set accel back to normal,G1 X0 Y0 Z15 F5000           		; get out the way,M400                         		; clear buffer,G4 S1                        		; pause,M117 Makin' shit toasty...              	; LCD status message,M140 S[bed0_temperature]		; get bed heating up,M109 S[extruder0_temperature]    	; set extruder temp and wait,M190 S[bed0_temperature]		; get bed temping up during first layer,G1 Z2 E0 F75                 		; extrude filament back into nozzle,M117 Gettin' it on...         		; LCD status message,;Printing starts here
;   layerChangeGcode,
;   retractionGcode,
;   toolChangeGcode,
;   endingGcode,"; layer end",M400                           	; wait for moves to finish,M104 S0                        	; hotend off,M107                           	; fans off,G91                            	; relative positioning,G1 E-1 F300                    	; retract the filament a bit before lifting the nozzle to release some of the pressure,G1 Z+20 E-5 X-20 Y-20 F3000    	; move Z up a bit and retract filament even more,M117 Cooling... Wait Damnit!      ; progress indicator message,G90                            	; absolute positioning,G1 Y0 F3000                    	; move to cooling position,M190 S50                       	; set bed to cool off,G1 Y280 F3000                  	; present finished print,M84                            	; steppers off,G90                            	; absolute positioning,M117 Shit's done y'all!            	; progress indicator message
;   exportFileFormat,gcode
;   celebration,0
;   celebrationSong,Funky Town
;   postProcessing,
;   defaultSpeed,3600
;   outlineUnderspeed,1
;   solidInfillUnderspeed,1
;   supportUnderspeed,0.95
;   rapidXYspeed,5400
;   rapidZspeed,1002
;   minBridgingArea,50
;   bridgingExtraInflation,0
;   bridgingExtrusionMultiplier,1
;   bridgingSpeedMultiplier,1
;   useFixedBridgingAngle,0
;   fixedBridgingAngle,0
;   applyBridgingToPerimeters,0
;   filamentDiameters,2.85|2.85|2.85|2.85|2.85|2.85
;   filamentPricesPerKg,46|46|46|46|46|46
;   filamentDensities,1.25|1.25|1.25|1.25|1.25|1.25
;   useMinPrintHeight,0
;   minPrintHeight,0
;   useMaxPrintHeight,0
;   maxPrintHeight,0
;   useDiaphragm,0
;   diaphragmLayerInterval,20
;   robustSlicing,1
;   mergeAllIntoSolid,0
;   onlyRetractWhenCrossingOutline,0
;   retractBetweenLayers,0
;   useRetractionMinTravel,0
;   retractionMinTravel,3
;   retractWhileWiping,1
;   onlyWipeOutlines,0
;   avoidCrossingOutline,0
;   maxMovementDetourFactor,10
;   toolChangeRetractionDistance,12
;   toolChangeExtraRestartDistance,-0.5
;   toolChangeRetractionSpeed,600
;   externalThinWallType,0
;   internalThinWallType,1
;   thinWallAllowedOverlapPercentage,50
;   singleExtrusionMinLength,1
;   singleExtrusionMinPrintingWidthPercentage,100
;   singleExtrusionMaxPrintingWidthPercentage,100
;   singleExtrusionEndpointExtension,0.2
;   horizontalSizeCompensation,0
G90
M82
M106 S0
G26                          		; clear potential 'probe fail' condition
G21                         		; set units to Millimetres
M107                        		; disable fans
G90                          		; absolute positioning
M82                          		; set extruder to absolute mode
G92 E0                       		; set extruder position to 0
M140 S110		; get bed heating up
G28 XY                       		; home X and Y
G1 X-19 Y258 F1000           		; move to safe homing position
M109 S160                    		; soften filament for z homing
G28 Z                        		; home Z
M104 S150                    		; wipe temp
G1 E-30 F100                 		; suck up XXmm of filament
G1 X-15 Y100 F3000           		; move above wiper pad
G1 Z1                        		; push nozzle into wiper
G1 X-17 Y95 F1000            		; slow wipe
G1 X-17 Y90 F1000            		; slow wipe
G1 X-17 Y85 F1000            		; slow wipe
G1 X-15 Y90 F1000            		; slow wipe
G1 X-17 Y80 F1000            		; slow wipe
G1 X-15 Y95 F1000            		; slow wipe
G1 X-17 Y75 F2000            		; fast wipe
G1 X-15 Y65 F2000            		; fast wipe
G1 X-17 Y70 F2000            		; fast wipe
G1 X-15 Y60 F2000            		; fast wipe
G1 X-17 Y55 F2000            		; fast wipe
G1 X-15 Y50 F2000            		; fast wipe
G1 X-17 Y40 F2000            		; fast wipe
G1 X-15 Y45 F2000            		; fast wipe
G1 X-17 Y35 F2000            		; fast wipe
G1 X-15 Y40 F2000            		; fast wipe
G1 X-17 Y70 F2000            		; fast wipe
G1 X-15 Y30 Z2 F2000       		; fast wipe
G1 X-17 Y35 F2000            		; fast wipe
G1 X-15 Y25 F2000            		; fast wipe
G1 X-17 Y30 F2000            		; fast wipe
G1 X-15 Y25 Z1.5 F1000       		; slow wipe
G1 X-17 Y23 F1000            		; slow wipe
G1 Z10                       		; raise extruder
M109 S150                   	 	; heat to probe temp
G1 X-9 Y-9                   		; move above probe
M204 S100                    		; set accel for probing
G29                          		; probe sequence (for auto-leveling)
M204 S500                    		; set accel back to normal
G1 X0 Y0 Z15 F5000           		; get out the way
M400                         		; clear buffer
G4 S1                        		; pause
M117 Makin' shit toasty...              	; LCD status message
M140 S110		; get bed heating up
M109 S240    	; set extruder temp and wait
M190 S110		; get bed temping up during first layer
G1 Z2 E0 F75                 		; extrude filament back into nozzle
M117 Gettin' it on...         		; LCD status message
;Printing starts here
; process Process1
; layer 1, Z = 0.800
T0
; feature infill
; tool H0.400 W0.800
G1 Z0.800 F1002
G1 X139.939 Y116.800 F5400
G92 E0.0000
G1 X0 Y0 E0 F1200
G1 X10 Y0 E1000 F1200
