; G-Code generated by Simplify3D(R) Version 4.1.2
; Sep 12, 2020 at 9:24:33 AM
; Settings Summary
;   processName,Process1
;   applyToModels,fea_bowl_part
;   profileName,LulzBot Taz 6 (modified)
;   profileVersion,2016-05-21 16:22:23
;   baseProfile,LulzBot TAZ 5 (modified)
;   printMaterial,PLA
;   printQuality,Medium
;   printExtruders,
;   extruderName,Primary Extruder
;   extruderToolheadNumber,0
;   extruderDiameter,0.8
;   extruderAutoWidth,0
;   extruderWidth,0.8
;   extrusionMultiplier,1
;   extruderUseRetract,0
;   extruderRetractionDistance,1.6
;   extruderExtraRestartDistance,0
;   extruderRetractionZLift,0.3
;   extruderRetractionSpeed,5400
;   extruderUseCoasting,0
;   extruderCoastingDistance,0.05
;   extruderUseWipe,0
;   extruderWipeDistance,5
;   primaryExtruder,0
;   layerHeight,0.4
;   topSolidLayers,0
;   bottomSolidLayers,0
;   perimeterOutlines,0
;   printPerimetersInsideOut,0
;   startPointOption,3
;   startPointOriginX,0
;   startPointOriginY,0
;   sequentialIslands,0
;   spiralVaseMode,0
;   firstLayerHeightPercentage,100
;   firstLayerWidthPercentage,100
;   firstLayerUnderspeed,0.25
;   useRaft,0
;   raftExtruder,0
;   raftTopLayers,3
;   raftBaseLayers,0
;   raftOffset,3
;   raftSeparationDistance,0.14
;   raftTopInfill,100
;   aboveRaftSpeedMultiplier,0.3
;   useSkirt,0
;   skirtExtruder,0
;   skirtLayers,1
;   skirtOutlines,2
;   skirtOffset,10
;   usePrimePillar,0
;   primePillarExtruder,999
;   primePillarWidth,12
;   primePillarLocation,7
;   primePillarSpeedMultiplier,1
;   useOozeShield,0
;   oozeShieldExtruder,999
;   oozeShieldOffset,2
;   oozeShieldOutlines,1
;   oozeShieldSidewallShape,1
;   oozeShieldSidewallAngle,30
;   oozeShieldSpeedMultiplier,1
;   infillExtruder,0
;   internalInfillPattern,Rectilinear
;   externalInfillPattern,Rectilinear
;   infillPercentage,100
;   outlineOverlapPercentage,0
;   infillExtrusionWidthPercentage,100
;   minInfillLength,0
;   infillLayerInterval,1
;   internalInfillAngles,0
;   overlapInternalInfillAngles,0
;   externalInfillAngles,45,-45
;   generateSupport,0
;   supportExtruder,0
;   supportInfillPercentage,30
;   supportExtraInflation,0
;   supportBaseLayers,0
;   denseSupportExtruder,0
;   denseSupportLayers,0
;   denseSupportInfillPercentage,70
;   supportLayerInterval,1
;   supportHorizontalPartOffset,0.3
;   supportUpperSeparationLayers,1
;   supportLowerSeparationLayers,1
;   supportType,0
;   supportGridSpacing,4
;   maxOverhangAngle,45
;   supportAngles,0
;   temperatureName,Primary Extruder,Heated Bed
;   temperatureNumber,0,0
;   temperatureSetpointCount,1,1
;   temperatureSetpointLayers,1,1
;   temperatureSetpointTemperatures,240,110
;   temperatureStabilizeAtStartup,1,1
;   temperatureHeatedBed,0,1
;   fanLayers,1
;   fanSpeeds,0
;   blipFanToFullPower,1
;   adjustSpeedForCooling,1
;   minSpeedLayerTime,15
;   minCoolingSpeedSlowdown,20
;   increaseFanForCooling,0
;   minFanLayerTime,45
;   maxCoolingFanSpeed,100
;   increaseFanForBridging,0
;   bridgingFanSpeed,100
;   use5D,1
;   relativeEdistances,0
;   allowEaxisZeroing,1
;   independentExtruderAxes,0
;   includeM10123,0
;   stickySupport,1
;   applyToolheadOffsets,0
;   gcodeXoffset,0
;   gcodeYoffset,0
;   gcodeZoffset,0.4
;   overrideMachineDefinition,1
;   machineTypeOverride,0
;   strokeXoverride,280
;   strokeYoverride,280
;   strokeZoverride,250
;   originOffsetXoverride,0
;   originOffsetYoverride,0
;   originOffsetZoverride,0
;   homeXdirOverride,-1
;   homeYdirOverride,-1
;   homeZdirOverride,-1
;   flipXoverride,1
;   flipYoverride,-1
;   flipZoverride,1
;   toolheadOffsets,0,0|0,0|0,0|0,0|0,0|0,0
;   overrideFirmwareConfiguration,1
;   firmwareTypeOverride,RepRap (Marlin/Repetier/Sprinter)
;   GPXconfigOverride,r2
;   baudRateOverride,250000
;   overridePrinterModels,1
;   printerModelsOverride,LulzBot_TAZ3.stl
;   startingGcode,G26                          		; clear potential 'probe fail' condition,G21                         		; set units to Millimetres,M107                        		; disable fans,G90                          		; absolute positioning,M82                          		; set extruder to absolute mode,G92 E0                       		; set extruder position to 0,M140 S[bed0_temperature]		; get bed heating up,G28 XY                       		; home X and Y,G1 X-19 Y258 F1000           		; move to safe homing position,M109 S160                    		; soften filament for z homing,G28 Z                        		; home Z,M104 S150                    		; wipe temp,G1 E-30 F100                 		; suck up XXmm of filament,G1 X-15 Y100 F3000           		; move above wiper pad,G1 Z1                        		; push nozzle into wiper,G1 X-17 Y95 F1000            		; slow wipe,G1 X-17 Y90 F1000            		; slow wipe,G1 X-17 Y85 F1000            		; slow wipe,G1 X-15 Y90 F1000            		; slow wipe,G1 X-17 Y80 F1000            		; slow wipe,G1 X-15 Y95 F1000            		; slow wipe,G1 X-17 Y75 F2000            		; fast wipe,G1 X-15 Y65 F2000            		; fast wipe,G1 X-17 Y70 F2000            		; fast wipe,G1 X-15 Y60 F2000            		; fast wipe,G1 X-17 Y55 F2000            		; fast wipe,G1 X-15 Y50 F2000            		; fast wipe,G1 X-17 Y40 F2000            		; fast wipe,G1 X-15 Y45 F2000            		; fast wipe,G1 X-17 Y35 F2000            		; fast wipe,G1 X-15 Y40 F2000            		; fast wipe,G1 X-17 Y70 F2000            		; fast wipe,G1 X-15 Y30 Z2 F2000       		; fast wipe,G1 X-17 Y35 F2000            		; fast wipe,G1 X-15 Y25 F2000            		; fast wipe,G1 X-17 Y30 F2000            		; fast wipe,G1 X-15 Y25 Z1.5 F1000       		; slow wipe,G1 X-17 Y23 F1000            		; slow wipe,G1 Z10                       		; raise extruder,M109 S150                   	 	; heat to probe temp,G1 X-9 Y-9                   		; move above probe,M204 S100                    		; set accel for probing,G29                          		; probe sequence (for auto-leveling),M204 S500                    		; set accel back to normal,G1 X0 Y0 Z15 F5000           		; get out the way,M400                         		; clear buffer,G4 S1                        		; pause,M117 Makin' shit toasty...              	; LCD status message,M140 S[bed0_temperature]		; get bed heating up,M109 S[extruder0_temperature]    	; set extruder temp and wait,M190 S[bed0_temperature]		; get bed temping up during first layer,G1 Z2 E0 F75                 		; extrude filament back into nozzle,M117 Gettin' it on...         		; LCD status message,;Printing starts here
;   layerChangeGcode,
;   retractionGcode,
;   toolChangeGcode,
;   endingGcode,"; layer end",M400                           	; wait for moves to finish,M104 S0                        	; hotend off,M107                           	; fans off,G91                            	; relative positioning,G1 E-1 F300                    	; retract the filament a bit before lifting the nozzle to release some of the pressure,G1 Z+20 E-5 X-20 Y-20 F3000    	; move Z up a bit and retract filament even more,M117 Cooling... Wait Damnit!      ; progress indicator message,G90                            	; absolute positioning,G1 Y0 F3000                    	; move to cooling position,M190 S50                       	; set bed to cool off,G1 Y280 F3000                  	; present finished print,M84                            	; steppers off,G90                            	; absolute positioning,M117 Shit's done y'all!            	; progress indicator message
;   exportFileFormat,gcode
;   celebration,0
;   celebrationSong,Funky Town
;   postProcessing,
;   defaultSpeed,3600
;   outlineUnderspeed,1
;   solidInfillUnderspeed,1
;   supportUnderspeed,0.95
;   rapidXYspeed,5400
;   rapidZspeed,1002
;   minBridgingArea,50
;   bridgingExtraInflation,0
;   bridgingExtrusionMultiplier,1
;   bridgingSpeedMultiplier,1
;   useFixedBridgingAngle,0
;   fixedBridgingAngle,0
;   applyBridgingToPerimeters,0
;   filamentDiameters,2.85|2.85|2.85|2.85|2.85|2.85
;   filamentPricesPerKg,46|46|46|46|46|46
;   filamentDensities,1.25|1.25|1.25|1.25|1.25|1.25
;   useMinPrintHeight,0
;   minPrintHeight,0
;   useMaxPrintHeight,0
;   maxPrintHeight,0
;   useDiaphragm,0
;   diaphragmLayerInterval,20
;   robustSlicing,1
;   mergeAllIntoSolid,0
;   onlyRetractWhenCrossingOutline,0
;   retractBetweenLayers,0
;   useRetractionMinTravel,0
;   retractionMinTravel,3
;   retractWhileWiping,1
;   onlyWipeOutlines,0
;   avoidCrossingOutline,0
;   maxMovementDetourFactor,10
;   toolChangeRetractionDistance,12
;   toolChangeExtraRestartDistance,-0.5
;   toolChangeRetractionSpeed,600
;   externalThinWallType,0
;   internalThinWallType,1
;   thinWallAllowedOverlapPercentage,50
;   singleExtrusionMinLength,1
;   singleExtrusionMinPrintingWidthPercentage,100
;   singleExtrusionMaxPrintingWidthPercentage,100
;   singleExtrusionEndpointExtension,0.2
;   horizontalSizeCompensation,0
G90
M82
M106 S0
G26                          		; clear potential 'probe fail' condition
G21                         		; set units to Millimetres
M107                        		; disable fans
G90                          		; absolute positioning
M82                          		; set extruder to absolute mode
G92 E0                       		; set extruder position to 0
M140 S110		; get bed heating up
G28 XY                       		; home X and Y
G1 X-19 Y258 F1000           		; move to safe homing position
M109 S160                    		; soften filament for z homing
G28 Z                        		; home Z
M104 S150                    		; wipe temp
G1 E-30 F100                 		; suck up XXmm of filament
G1 X-15 Y100 F3000           		; move above wiper pad
G1 Z1                        		; push nozzle into wiper
G1 X-17 Y95 F1000            		; slow wipe
G1 X-17 Y90 F1000            		; slow wipe
G1 X-17 Y85 F1000            		; slow wipe
G1 X-15 Y90 F1000            		; slow wipe
G1 X-17 Y80 F1000            		; slow wipe
G1 X-15 Y95 F1000            		; slow wipe
G1 X-17 Y75 F2000            		; fast wipe
G1 X-15 Y65 F2000            		; fast wipe
G1 X-17 Y70 F2000            		; fast wipe
G1 X-15 Y60 F2000            		; fast wipe
G1 X-17 Y55 F2000            		; fast wipe
G1 X-15 Y50 F2000            		; fast wipe
G1 X-17 Y40 F2000            		; fast wipe
G1 X-15 Y45 F2000            		; fast wipe
G1 X-17 Y35 F2000            		; fast wipe
G1 X-15 Y40 F2000            		; fast wipe
G1 X-17 Y70 F2000            		; fast wipe
G1 X-15 Y30 Z2 F2000       		; fast wipe
G1 X-17 Y35 F2000            		; fast wipe
G1 X-15 Y25 F2000            		; fast wipe
G1 X-17 Y30 F2000            		; fast wipe
G1 X-15 Y25 Z1.5 F1000       		; slow wipe
G1 X-17 Y23 F1000            		; slow wipe
G1 Z10                       		; raise extruder
M109 S150                   	 	; heat to probe temp
G1 X-9 Y-9                   		; move above probe
M204 S100                    		; set accel for probing
G29                          		; probe sequence (for auto-leveling)
M204 S500                    		; set accel back to normal
G1 X0 Y0 Z15 F5000           		; get out the way
M400                         		; clear buffer
G4 S1                        		; pause
M117 Makin' shit toasty...              	; LCD status message
M140 S110		; get bed heating up
M109 S240    	; set extruder temp and wait
M190 S110		; get bed temping up during first layer
G1 Z2 E0 F75                 		; extrude filament back into nozzle
M117 Gettin' it on...         		; LCD status message
;Printing starts here
; process Process1
; layer 1, Z = 0.800
T0
; feature infill
; tool H0.400 W0.800
G1 Z0.800 F1002
G1 X139.939 Y116.800 F5400
G92 E0.0000
G1 X140.061 Y116.800 E0.0061 F900
G1 X142.425 Y116.924 E0.1249
G1 X144.824 Y117.304 E0.2467
G1 X145.930 Y117.600 E0.3041
G1 X134.070 Y117.600 E0.8990
G1 X132.830 Y117.932 E0.9634
G1 X131.612 Y118.400 E1.0289
G1 X148.388 Y118.400 E1.8704
G1 X149.438 Y118.803 E1.9268
G1 X150.217 Y119.200 E1.9707
G1 X129.783 Y119.200 E2.9957
G1 X128.399 Y119.905 E3.0736
G1 X128.253 Y120.000 E3.0823
G1 X151.747 Y120.000 E4.2608
G1 X152.979 Y120.800 E4.3345
G1 X127.021 Y120.800 E5.6366
G1 X126.362 Y121.228 E5.6761
G1 X125.902 Y121.600 E5.7057
G1 X154.098 Y121.600 E7.1200
G1 X155.086 Y122.400 E7.1838
G1 X124.914 Y122.400 E8.6972
G1 X124.474 Y122.757 E8.7256
G1 X124.031 Y123.200 E8.7571
G1 X155.969 Y123.200 E10.3592
G1 X156.769 Y124.000 E10.4159
G1 X123.231 Y124.000 E12.0983
G1 X122.757 Y124.474 E12.1319
G1 X122.493 Y124.800 E12.1529
G1 X157.507 Y124.800 E13.9093
G1 X158.155 Y125.600 E13.9610
G1 X121.845 Y125.600 E15.7823
G1 X121.228 Y126.362 E15.8315
G1 X121.203 Y126.400 E15.8338
G1 X158.797 Y126.400 E17.7195
G1 X159.316 Y127.200 E17.7674
G1 X120.684 Y127.200 E19.7052
G1 X120.164 Y128.000 E19.7531
G1 X159.836 Y128.000 E21.7431
G1 X160.095 Y128.398 E21.7669
G1 X160.299 Y128.800 E21.7895
G1 X119.701 Y128.800 E23.8260
G1 X119.293 Y129.600 E23.8710
G1 X160.707 Y129.600 E25.9484
G1 X161.114 Y130.400 E25.9934
G1 X118.886 Y130.400 E28.1117
G1 X118.803 Y130.562 E28.1208
G1 X118.558 Y131.200 E28.1551
G1 X161.442 Y131.200 E30.3062
G1 X161.749 Y132.000 E30.3492
G1 X118.251 Y132.000 E32.5311
G1 X117.944 Y132.800 E32.5741
G1 X162.056 Y132.800 E34.7868
G1 X162.068 Y132.830 E34.7884
G1 X162.274 Y133.600 E34.8284
G1 X117.726 Y133.600 E37.0630
G1 X117.512 Y134.400 E37.1046
G1 X162.488 Y134.400 E39.3607
G1 X162.696 Y135.176 E39.4010
G1 X162.700 Y135.200 E39.4022
G1 X117.300 Y135.200 E41.6795
G1 X117.173 Y136.000 E41.7201
G1 X162.827 Y136.000 E44.0102
G1 X162.953 Y136.800 E44.0508
G1 X117.047 Y136.800 E46.3536
G1 X116.924 Y137.575 E46.3929
G1 X116.923 Y137.600 E46.3942
G1 X163.077 Y137.600 E48.7094
G1 X163.119 Y138.400 E48.7496
G1 X116.881 Y138.400 E51.0690
G1 X116.839 Y139.200 E51.1091
G1 X163.161 Y139.200 E53.4328
G1 X163.203 Y140.000 E53.4729
G1 X116.797 Y140.000 E55.8008
G1 X116.839 Y140.800 E55.8409
G1 X163.161 Y140.800 E58.1645
G1 X163.119 Y141.600 E58.2047
G1 X116.881 Y141.600 E60.5241
G1 X116.923 Y142.400 E60.5643
G1 X163.077 Y142.400 E62.8795
G1 X163.076 Y142.425 E62.8808
G1 X162.953 Y143.200 E62.9201
G1 X117.047 Y143.200 E65.2229
G1 X117.173 Y144.000 E65.2635
G1 X162.827 Y144.000 E67.5535
G1 X162.700 Y144.800 E67.5942
G1 X117.300 Y144.800 E69.8715
G1 X117.304 Y144.824 E69.8727
G1 X117.512 Y145.600 E69.9130
G1 X162.488 Y145.600 E72.1691
G1 X162.274 Y146.400 E72.2107
G1 X117.726 Y146.400 E74.4452
G1 X117.932 Y147.170 E74.4852
G1 X117.944 Y147.200 E74.4868
G1 X162.056 Y147.200 E76.6996
G1 X161.749 Y148.000 E76.7426
G1 X118.251 Y148.000 E78.9245
G1 X118.558 Y148.800 E78.9675
G1 X161.442 Y148.800 E81.1186
G1 X161.197 Y149.438 E81.1528
G1 X161.114 Y149.600 E81.1620
G1 X118.886 Y149.600 E83.2802
G1 X119.293 Y150.400 E83.3253
G1 X160.707 Y150.400 E85.4026
G1 X160.299 Y151.200 E85.4477
G1 X119.701 Y151.200 E87.4842
G1 X119.905 Y151.602 E87.5068
G1 X120.164 Y152.000 E87.5306
G1 X159.836 Y152.000 E89.5206
G1 X159.316 Y152.800 E89.5684
G1 X120.684 Y152.800 E91.5063
G1 X121.203 Y153.600 E91.5541
G1 X158.797 Y153.600 E93.4399
G1 X158.772 Y153.638 E93.4422
G1 X158.155 Y154.400 E93.4913
G1 X121.845 Y154.400 E95.3127
G1 X122.493 Y155.200 E95.3644
G1 X157.507 Y155.200 E97.1207
G1 X157.243 Y155.526 E97.1418
G1 X156.769 Y156.000 E97.1754
G1 X123.231 Y156.000 E98.8577
G1 X124.031 Y156.800 E98.9145
G1 X155.969 Y156.800 E100.5166
G1 X155.526 Y157.243 E100.5480
G1 X155.085 Y157.600 E100.5765
G1 X124.915 Y157.600 E102.0899
G1 X125.902 Y158.400 E102.1536
G1 X154.098 Y158.400 E103.5680
G1 X153.638 Y158.772 E103.5976
G1 X152.979 Y159.200 E103.6370
G1 X127.021 Y159.200 E104.9391
G1 X128.253 Y160.000 E105.0128
G1 X151.747 Y160.000 E106.1913
G1 X151.602 Y160.095 E106.2000
G1 X150.217 Y160.800 E106.2780
G1 X129.783 Y160.800 E107.3030
G1 X130.562 Y161.197 E107.3469
G1 X131.612 Y161.600 E107.4032
G1 X148.388 Y161.600 E108.2448
G1 X147.170 Y162.068 E108.3102
G1 X145.929 Y162.400 E108.3746
G1 X134.071 Y162.400 E108.9695
G1 X135.176 Y162.696 E109.0269
G1 X137.588 Y163.077 E109.1494
G1 X139.939 Y163.200 E109.2675
G1 X140.061 Y163.200 E109.2736
; layer 2, Z = 1.200
G1 Z1.200 F1002
