; G-Code generated by Simplify3D(R) Version 4.1.2
; Jun 25, 2025 at 9:03:44 AM
; Settings Summary
;   processName,Process1
;   applyToModels,wall
;   profileName,Prusa i3 (modified)
;   profileVersion,2016-06-08 08:00:00
;   baseProfile,
;   printMaterial,PLA
;   printQuality,Medium
;   printExtruders,
;   extruderName,Primary Extruder
;   extruderToolheadNumber,0
;   extruderDiameter,0.4
;   extruderAutoWidth,0
;   extruderWidth,15.87
;   extrusionMultiplier,0.9
;   extruderUseRetract,0
;   extruderRetractionDistance,1.5
;   extruderExtraRestartDistance,0
;   extruderRetractionZLift,0
;   extruderRetractionSpeed,1800
;   extruderUseCoasting,0
;   extruderCoastingDistance,0.2
;   extruderUseWipe,0
;   extruderWipeDistance,2
;   primaryExtruder,0
;   layerHeight,5.08
;   topSolidLayers,0
;   bottomSolidLayers,0
;   perimeterOutlines,1
;   printPerimetersInsideOut,1
;   startPointOption,3
;   startPointOriginX,0
;   startPointOriginY,0
;   sequentialIslands,0
;   spiralVaseMode,0
;   firstLayerHeightPercentage,100
;   firstLayerWidthPercentage,100
;   firstLayerUnderspeed,1
;   useRaft,0
;   raftExtruder,0
;   raftTopLayers,3
;   raftBaseLayers,2
;   raftOffset,3
;   raftSeparationDistance,0.14
;   raftTopInfill,100
;   aboveRaftSpeedMultiplier,0.3
;   useSkirt,0
;   skirtExtruder,0
;   skirtLayers,1
;   skirtOutlines,1
;   skirtOffset,1.8
;   usePrimePillar,0
;   primePillarExtruder,999
;   primePillarWidth,12
;   primePillarLocation,7
;   primePillarSpeedMultiplier,1
;   useOozeShield,0
;   oozeShieldExtruder,999
;   oozeShieldOffset,2
;   oozeShieldOutlines,1
;   oozeShieldSidewallShape,1
;   oozeShieldSidewallAngle,30
;   oozeShieldSpeedMultiplier,1
;   infillExtruder,0
;   internalInfillPattern,Grid
;   externalInfillPattern,Rectilinear
;   infillPercentage,0
;   outlineOverlapPercentage,21
;   infillExtrusionWidthPercentage,100
;   minInfillLength,2
;   infillLayerInterval,1
;   internalInfillAngles,45,-45
;   overlapInternalInfillAngles,1
;   externalInfillAngles,45,-45
;   generateSupport,0
;   supportExtruder,0
;   supportInfillPercentage,30
;   supportExtraInflation,0
;   supportBaseLayers,0
;   denseSupportExtruder,0
;   denseSupportLayers,0
;   denseSupportInfillPercentage,70
;   supportLayerInterval,1
;   supportHorizontalPartOffset,0.2
;   supportUpperSeparationLayers,1
;   supportLowerSeparationLayers,1
;   supportType,0
;   supportGridSpacing,4
;   maxOverhangAngle,45
;   supportAngles,0
;   temperatureName,Primary Extruder,Heated Bed
;   temperatureNumber,0,1
;   temperatureSetpointCount,1,1
;   temperatureSetpointLayers,1,1
;   temperatureSetpointTemperatures,215,90
;   temperatureStabilizeAtStartup,1,1
;   temperatureHeatedBed,0,1
;   fanLayers,1,2
;   fanSpeeds,0,100
;   blipFanToFullPower,1
;   adjustSpeedForCooling,0
;   minSpeedLayerTime,15
;   minCoolingSpeedSlowdown,20
;   increaseFanForCooling,0
;   minFanLayerTime,45
;   maxCoolingFanSpeed,100
;   increaseFanForBridging,1
;   bridgingFanSpeed,100
;   use5D,1
;   relativeEdistances,1
;   allowEaxisZeroing,1
;   independentExtruderAxes,0
;   includeM10123,0
;   stickySupport,1
;   applyToolheadOffsets,0
;   gcodeXoffset,0
;   gcodeYoffset,0
;   gcodeZoffset,0
;   overrideMachineDefinition,1
;   machineTypeOverride,0
;   strokeXoverride,2500
;   strokeYoverride,1500
;   strokeZoverride,1500
;   originOffsetXoverride,0
;   originOffsetYoverride,0
;   originOffsetZoverride,0
;   homeXdirOverride,-1
;   homeYdirOverride,-1
;   homeZdirOverride,-1
;   flipXoverride,1
;   flipYoverride,-1
;   flipZoverride,1
;   toolheadOffsets,0,0|0,0|0,0|0,0|0,0|0,0
;   overrideFirmwareConfiguration,1
;   firmwareTypeOverride,RepRap (Marlin/Repetier/Sprinter)
;   GPXconfigOverride,r2
;   baudRateOverride,250000
;   overridePrinterModels,1
;   printerModelsOverride
;   startingGcode,G28 ; home all,G92 E0,G1 Z0.1 F1000,G1 X8.0 F2000,G1 Y60.0 E4.0 F1000.0 ; prime,G1 Y100.0 E8.5 F1000.0 ; prime,G92 E0,;Printing starts here
;   layerChangeGcode,
;   retractionGcode,
;   toolChangeGcode,
;   endingGcode,; layer end,M104 S0 ; turn off extruder,M140 S0 ; turn off bed,G91 ; use relative coordinates,G1 Z0.6 F5000 ; lift nozzle by 0.6mm,G90 ; use absolute coordinates,G28 X0 ; home X axis,G1 Y195 ; move Y axis to end position,M84 ; disable motors,M107 ; turn off fan
;   exportFileFormat,gcode
;   celebration,0
;   celebrationSong,Random Song
;   postProcessing,
;   defaultSpeed,3240
;   outlineUnderspeed,1
;   solidInfillUnderspeed,1
;   supportUnderspeed,1
;   rapidXYspeed,3240
;   rapidZspeed,2
;   minBridgingArea,50
;   bridgingExtraInflation,0
;   bridgingExtrusionMultiplier,1
;   bridgingSpeedMultiplier,1
;   useFixedBridgingAngle,0
;   fixedBridgingAngle,0
;   applyBridgingToPerimeters,0
;   filamentDiameters,1.75|1.75|1.75|1.75|1.75|1.75
;   filamentPricesPerKg,215|215|215|215|215|215
;   filamentDensities,1.25|1.25|1.25|1.25|1.25|1.25
;   useMinPrintHeight,0
;   minPrintHeight,0
;   useMaxPrintHeight,0
;   maxPrintHeight,0
;   useDiaphragm,0
;   diaphragmLayerInterval,20
;   robustSlicing,1
;   mergeAllIntoSolid,0
;   onlyRetractWhenCrossingOutline,0
;   retractBetweenLayers,1
;   useRetractionMinTravel,1
;   retractionMinTravel,3
;   retractWhileWiping,1
;   onlyWipeOutlines,1
;   avoidCrossingOutline,0
;   maxMovementDetourFactor,3
;   toolChangeRetractionDistance,12
;   toolChangeExtraRestartDistance,-0.5
;   toolChangeRetractionSpeed,600
;   externalThinWallType,0
;   internalThinWallType,2
;   thinWallAllowedOverlapPercentage,10
;   singleExtrusionMinLength,1
;   singleExtrusionMinPrintingWidthPercentage,50
;   singleExtrusionMaxPrintingWidthPercentage,200
;   singleExtrusionEndpointExtension,0.2
;   horizontalSizeCompensation,0
G90
M83
M106 S0
M140 S90
M190 S90
M104 S215 T0
M109 S215 T0
G28 ; home all
G92 E0
G1 Z0.1 F1000
G1 X8.0 F2000
G1 Y60.0 E4.0 F1000.0 ; prime
G1 Y100.0 E8.5 F1000.0 ; prime
G92 E0
;Printing starts here
; process Process1
; layer 1, Z = 5.080
T0
; feature outer perimeter
; tool H5.080 W15.870
G1 Z5.080 F2
G1 X7.935 Y7.935 F3240
G1 X742.065 Y7.940 E22145.8877 F3240
G1 X7.935 Y7.935 E22145.8877
; layer 2, Z = 10.160
M106 S255
G1 Z10.160 F2
G1 X742.065 Y7.940 E22145.8877 F3240
G1 X7.935 Y7.935 E22145.8877
; layer 3, Z = 15.240
G1 Z15.240 F2
G1 X742.065 Y7.940 E22145.8877 F3240
G1 X7.935 Y7.935 E22145.8877
; layer 4, Z = 20.320
G1 Z20.320 F2
G1 X742.065 Y7.940 E22145.8877 F3240
G1 X7.935 Y7.935 E22145.8877
; layer 5, Z = 25.400
G1 Z25.400 F2
G1 X742.065 Y7.940 E22145.8877 F3240
G1 X7.935 Y7.935 E22145.8877
; layer 6, Z = 30.480
G1 Z30.480 F2
G1 X742.065 Y7.940 E22145.8877 F3240
G1 X7.935 Y7.935 E22145.8877
; layer 7, Z = 35.560
G1 Z35.560 F2
G1 X742.065 Y7.940 E22145.8877 F3240
G1 X7.935 Y7.935 E22145.8877
; layer 8, Z = 40.640
G1 Z40.640 F2
G1 X742.065 Y7.940 E22145.8877 F3240
G1 X7.935 Y7.935 E22145.8877
; layer 9, Z = 45.720
G1 Z45.720 F2
G1 X742.065 Y7.940 E22145.8877 F3240
G1 X7.935 Y7.935 E22145.8877
; layer 10, Z = 50.800
G1 Z50.800 F2
G1 X742.065 Y7.940 E22145.8877 F3240
G1 X7.935 Y7.935 E22145.8877
; layer 11, Z = 55.880
G1 Z55.880 F2
G1 X742.065 Y7.940 E22145.8877 F3240
G1 X7.935 Y7.935 E22145.8877
; layer 12, Z = 60.960
G1 Z60.960 F2
G1 X742.065 Y7.940 E22145.8877 F3240
G1 X7.935 Y7.935 E22145.8877
; layer 13, Z = 66.040
G1 Z66.040 F2
G1 X742.065 Y7.940 E22145.8877 F3240
G1 X7.935 Y7.935 E22145.8877
; layer 14, Z = 71.120
G1 Z71.120 F2
G1 X742.065 Y7.940 E22145.8877 F3240
G1 X7.935 Y7.935 E22145.8877
; layer 15, Z = 76.200
G1 Z76.200 F2
G1 X742.065 Y7.940 E22145.8877 F3240
G1 X7.935 Y7.935 E22145.8877
; layer 16, Z = 81.280
G1 Z81.280 F2
G1 X742.065 Y7.940 E22145.8877 F3240
G1 X7.935 Y7.935 E22145.8877
; layer 17, Z = 86.360
G1 Z86.360 F2
G1 X742.065 Y7.940 E22145.8877 F3240
G1 X7.935 Y7.935 E22145.8877
; layer 18, Z = 91.440
G1 Z91.440 F2
G1 X742.065 Y7.940 E22145.8877 F3240
G1 X7.935 Y7.935 E22145.8877
; layer 19, Z = 96.520
G1 Z96.520 F2
G1 X742.065 Y7.940 E22145.8877 F3240
G1 X7.935 Y7.935 E22145.8877
; layer 20, Z = 101.600
G1 Z101.600 F2
G1 X742.065 Y7.940 E22145.8877 F3240
G1 X7.935 Y7.935 E22145.8877
; layer 21, Z = 106.680
G1 Z106.680 F2
G1 X742.065 Y7.940 E22145.8877 F3240
G1 X7.935 Y7.935 E22145.8877
; layer 22, Z = 111.760
G1 Z111.760 F2
G1 X742.065 Y7.940 E22145.8877 F3240
G1 X7.935 Y7.935 E22145.8877
; layer 23, Z = 116.840
G1 Z116.840 F2
G1 X742.065 Y7.940 E22145.8877 F3240
G1 X7.935 Y7.935 E22145.8877
; layer 24, Z = 121.920
G1 Z121.920 F2
G1 X742.065 Y7.940 E22145.8877 F3240
G1 X7.935 Y7.935 E22145.8877
; layer 25, Z = 127.000
G1 Z127.000 F2
G1 X742.065 Y7.940 E22145.8877 F3240
G1 X7.935 Y7.935 E22145.8877
; layer 26, Z = 132.080
G1 Z132.080 F2
G1 X742.065 Y7.940 E22145.8877 F3240
G1 X7.935 Y7.935 E22145.8877
; layer 27, Z = 137.160
G1 Z137.160 F2
G1 X742.065 Y7.940 E22145.8877 F3240
G1 X7.935 Y7.935 E22145.8877
; layer 28, Z = 142.240
G1 Z142.240 F2
G1 X742.065 Y7.940 E22145.8877 F3240
G1 X7.935 Y7.935 E22145.8877
; layer 29, Z = 147.320
G1 Z147.320 F2
G1 X742.065 Y7.940 E22145.8877 F3240
G1 X7.935 Y7.935 E22145.8877
; layer 30, Z = 152.400
G1 Z152.400 F2
G1 X742.065 Y7.940 E22145.8877 F3240
G1 X7.935 Y7.935 E22145.8877
; layer 31, Z = 157.480
G1 Z157.480 F2
G1 X742.065 Y7.940 E22145.8877 F3240
G1 X7.935 Y7.935 E22145.8877
; layer 32, Z = 162.560
G1 Z162.560 F2
G1 X742.065 Y7.940 E22145.8877 F3240
G1 X7.935 Y7.935 E22145.8877
; layer 33, Z = 167.640
G1 Z167.640 F2
G1 X742.065 Y7.940 E22145.8877 F3240
G1 X7.935 Y7.935 E22145.8877
; layer 34, Z = 172.720
G1 Z172.720 F2
G1 X742.065 Y7.940 E22145.8877 F3240
G1 X7.935 Y7.935 E22145.8877
; layer 35, Z = 177.800
G1 Z177.800 F2
G1 X742.065 Y7.940 E22145.8877 F3240
G1 X7.935 Y7.935 E22145.8877
; layer 36, Z = 182.880
G1 Z182.880 F2
G1 X742.065 Y7.940 E22145.8877 F3240
G1 X7.935 Y7.935 E22145.8877
; layer 37, Z = 187.960
G1 Z187.960 F2
G1 X742.065 Y7.940 E22145.8877 F3240
G1 X7.935 Y7.935 E22145.8877
; layer 38, Z = 193.040
G1 Z193.040 F2
G1 X742.065 Y7.940 E22145.8877 F3240
G1 X7.935 Y7.935 E22145.8877
; layer 39, Z = 198.120
G1 Z198.120 F2
G1 X742.065 Y7.940 E22145.8877 F3240
G1 X7.935 Y7.935 E22145.8877
; layer 40, Z = 203.200
G1 Z203.200 F2
G1 X742.065 Y7.940 E22145.8877 F3240
G1 X7.935 Y7.935 E22145.8877
; layer 41, Z = 208.280
G1 Z208.280 F2
G1 X742.065 Y7.940 E22145.8877 F3240
G1 X7.935 Y7.935 E22145.8877
; layer 42, Z = 213.360
G1 Z213.360 F2
G1 X742.065 Y7.940 E22145.8877 F3240
G1 X7.935 Y7.935 E22145.8877
; layer 43, Z = 218.440
G1 Z218.440 F2
G1 X742.065 Y7.940 E22145.8877 F3240
G1 X7.935 Y7.935 E22145.8877
; layer 44, Z = 223.520
G1 Z223.520 F2
G1 X742.065 Y7.940 E22145.8877 F3240
G1 X7.935 Y7.935 E22145.8877
; layer 45, Z = 228.600
G1 Z228.600 F2
G1 X742.065 Y7.940 E22145.8877 F3240
G1 X7.935 Y7.935 E22145.8877
; layer 46, Z = 233.680
G1 Z233.680 F2
G1 X742.065 Y7.940 E22145.8877 F3240
G1 X7.935 Y7.935 E22145.8877
; layer 47, Z = 238.760
G1 Z238.760 F2
G1 X742.065 Y7.940 E22145.8877 F3240
G1 X7.935 Y7.935 E22145.8877
; layer 48, Z = 243.840
G1 Z243.840 F2
G1 X742.065 Y7.940 E22145.8877 F3240
G1 X7.935 Y7.935 E22145.8877
; layer 49, Z = 248.920
G1 Z248.920 F2
G1 X742.065 Y7.940 E22145.8877 F3240
G1 X7.935 Y7.935 E22145.8877
; layer 50, Z = 254.000
G1 Z254.000 F2
G1 X742.065 Y7.940 E22145.8877 F3240
G1 X7.935 Y7.935 E22145.8877
; layer 51, Z = 259.080
G1 Z259.080 F2
G1 X742.065 Y7.940 E22145.8877 F3240
G1 X7.935 Y7.935 E22145.8877
; layer 52, Z = 264.160
G1 Z264.160 F2
G1 X742.065 Y7.940 E22145.8877 F3240
G1 X7.935 Y7.935 E22145.8877
; layer 53, Z = 269.240
G1 Z269.240 F2
G1 X742.065 Y7.940 E22145.8877 F3240
G1 X7.935 Y7.935 E22145.8877
; layer 54, Z = 274.320
G1 Z274.320 F2
G1 X742.065 Y7.940 E22145.8877 F3240
G1 X7.935 Y7.935 E22145.8877
; layer 55, Z = 279.400
G1 Z279.400 F2
G1 X742.065 Y7.940 E22145.8877 F3240
G1 X7.935 Y7.935 E22145.8877
; layer 56, Z = 284.480
G1 Z284.480 F2
G1 X742.065 Y7.940 E22145.8877 F3240
G1 X7.935 Y7.935 E22145.8877
; layer 57, Z = 289.560
G1 Z289.560 F2
G1 X742.065 Y7.940 E22145.8877 F3240
G1 X7.935 Y7.935 E22145.8877
; layer 58, Z = 294.640
G1 Z294.640 F2
G1 X742.065 Y7.940 E22145.8877 F3240
G1 X7.935 Y7.935 E22145.8877
; layer 59, Z = 299.720
G1 Z299.720 F2
G1 X742.065 Y7.940 E22145.8877 F3240
G1 X7.935 Y7.935 E22145.8877
; layer 60, Z = 304.800
G1 Z304.800 F2
G1 X742.065 Y7.940 E22145.8877 F3240
G1 X7.935 Y7.935 E22145.8877
; layer 61, Z = 309.880
G1 Z309.880 F2
G1 X742.065 Y7.940 E22145.8877 F3240
G1 X7.935 Y7.935 E22145.8877
; layer 62, Z = 314.960
G1 Z314.960 F2
G1 X742.065 Y7.940 E22145.8877 F3240
G1 X7.935 Y7.935 E22145.8877
; layer 63, Z = 320.040
G1 Z320.040 F2
G1 X742.065 Y7.940 E22145.8877 F3240
G1 X7.935 Y7.935 E22145.8877
; layer 64, Z = 325.120
G1 Z325.120 F2
G1 X742.065 Y7.940 E22145.8877 F3240
G1 X7.935 Y7.935 E22145.8877
; layer 65, Z = 330.200
G1 Z330.200 F2
G1 X742.065 Y7.940 E22145.8877 F3240
G1 X7.935 Y7.935 E22145.8877
; layer 66, Z = 335.280
G1 Z335.280 F2
G1 X742.065 Y7.940 E22145.8877 F3240
G1 X7.935 Y7.935 E22145.8877
; layer 67, Z = 340.360
G1 Z340.360 F2
G1 X742.065 Y7.940 E22145.8877 F3240
G1 X7.935 Y7.935 E22145.8877
; layer 68, Z = 345.440
G1 Z345.440 F2
G1 X742.065 Y7.940 E22145.8877 F3240
G1 X7.935 Y7.935 E22145.8877
; layer 69, Z = 350.520
G1 Z350.520 F2
G1 X742.065 Y7.940 E22145.8877 F3240
G1 X7.935 Y7.935 E22145.8877
; layer 70, Z = 355.600
G1 Z355.600 F2
G1 X742.065 Y7.940 E22145.8877 F3240
G1 X7.935 Y7.935 E22145.8877
; layer 71, Z = 360.680
G1 Z360.680 F2
G1 X742.065 Y7.940 E22145.8877 F3240
G1 X7.935 Y7.935 E22145.8877
; layer 72, Z = 365.760
G1 Z365.760 F2
G1 X742.065 Y7.940 E22145.8877 F3240
G1 X7.935 Y7.935 E22145.8877
; layer 73, Z = 370.840
G1 Z370.840 F2
G1 X742.065 Y7.940 E22145.8877 F3240
G1 X7.935 Y7.935 E22145.8877
; layer 74, Z = 375.920
G1 Z375.920 F2
G1 X742.065 Y7.940 E22145.8877 F3240
G1 X7.935 Y7.935 E22145.8877
; layer 75, Z = 381.000
G1 Z381.000 F2
G1 X742.065 Y7.940 E22145.8877 F3240
G1 X7.935 Y7.935 E22145.8877
; layer 76, Z = 386.080
G1 Z386.080 F2
G1 X742.065 Y7.940 E22145.8877 F3240
G1 X7.935 Y7.935 E22145.8877
; layer 77, Z = 391.160
G1 Z391.160 F2
G1 X742.065 Y7.940 E22145.8877 F3240
G1 X7.935 Y7.935 E22145.8877
; layer 78, Z = 396.240
G1 Z396.240 F2
G1 X742.065 Y7.940 E22145.8877 F3240
G1 X7.935 Y7.935 E22145.8877
; layer 79, Z = 401.320
G1 Z401.320 F2
G1 X742.065 Y7.940 E22145.8877 F3240
G1 X7.935 Y7.935 E22145.8877
; layer 80, Z = 406.400
G1 Z406.400 F2
G1 X742.065 Y7.940 E22145.8877 F3240
G1 X7.935 Y7.935 E22145.8877
; layer 81, Z = 411.480
G1 Z411.480 F2
G1 X742.065 Y7.940 E22145.8877 F3240
G1 X7.935 Y7.935 E22145.8877
; layer 82, Z = 416.560
G1 Z416.560 F2
G1 X742.065 Y7.940 E22145.8877 F3240
G1 X7.935 Y7.935 E22145.8877
; layer 83, Z = 421.640
G1 Z421.640 F2
G1 X742.065 Y7.940 E22145.8877 F3240
G1 X7.935 Y7.935 E22145.8877
; layer 84, Z = 426.720
G1 Z426.720 F2
G1 X742.065 Y7.940 E22145.8877 F3240
G1 X7.935 Y7.935 E22145.8877
; layer 85, Z = 431.800
G1 Z431.800 F2
G1 X742.065 Y7.940 E22145.8877 F3240
G1 X7.935 Y7.935 E22145.8877
; layer 86, Z = 436.880
G1 Z436.880 F2
G1 X742.065 Y7.940 E22145.8877 F3240
G1 X7.935 Y7.935 E22145.8877
; layer 87, Z = 441.960
G1 Z441.960 F2
G1 X742.065 Y7.940 E22145.8877 F3240
G1 X7.935 Y7.935 E22145.8877
; layer 88, Z = 447.040
G1 Z447.040 F2
G1 X742.065 Y7.940 E22145.8877 F3240
G1 X7.935 Y7.935 E22145.8877
; layer 89, Z = 452.120
G1 Z452.120 F2
G1 X742.065 Y7.940 E22145.8877 F3240
G1 X7.935 Y7.935 E22145.8877
; layer 90, Z = 457.200
G1 Z457.200 F2
G1 X742.065 Y7.940 E22145.8877 F3240
G1 X7.935 Y7.935 E22145.8877
; layer 91, Z = 462.280
G1 Z462.280 F2
G1 X742.065 Y7.940 E22145.8877 F3240
G1 X7.935 Y7.935 E22145.8877
; layer 92, Z = 467.360
G1 Z467.360 F2
G1 X742.065 Y7.940 E22145.8877 F3240
G1 X7.935 Y7.935 E22145.8877
; layer 93, Z = 472.440
G1 Z472.440 F2
G1 X742.065 Y7.940 E22145.8877 F3240
G1 X7.935 Y7.935 E22145.8877
; layer 94, Z = 477.520
G1 Z477.520 F2
G1 X742.065 Y7.940 E22145.8877 F3240
G1 X7.935 Y7.935 E22145.8877
; layer 95, Z = 482.600
G1 Z482.600 F2
G1 X742.065 Y7.940 E22145.8877 F3240
G1 X7.935 Y7.935 E22145.8877
; layer 96, Z = 487.680
G1 Z487.680 F2
G1 X742.065 Y7.940 E22145.8877 F3240
